X: 120
T: Song of the Badger Society (a)
C: Teton Sioux band 1911-1914
N: Derived from sioux120.krn
O: South Dakota, U.S.A.
N: Teton Sioux Music by Frances Densmore, 1918
Z: transcribed to **kern format by Craig Sapp
L: 1/8
M: 2/4
Q: 1/4=58
K: F clef=bass
%%linebreak <none>
D< D (3F D D [I:setbarnb 2]| 
^C< D (3F D D ||  
[M:3/4]^C4-C3/ D/ ||  
[M:2/4]^C< C (3D C C | 
(3A, A, F, F,3/ F,/ ||  
[M:3/4]F,4-F,3/ F,/ ||  
[M:2/4]F,< F, (3G, G, F, | 
D,< F, (3G, G, F, | 
D,4 | 
D,3D, | 
D,2D,2 |]  



